Sources/FrostedUI/Resources/Icons.xcassets/gear12.imageset/gear-12.svg

<svg width="12" height="12" viewBox="0 0 12 12" fill="none" xmlns="http://www.w3.org/2000/svg" data-fui-icon="true">
  <path
    fill-rule="evenodd"
    clip-rule="evenodd"
    d="M6.52483 0.569336C7.27345 0.636714 7.89502 1.19831 8.02776 1.95117L8.07268 2.20801C8.14907 2.24851 8.22387 2.2913 8.29729 2.33594L8.57463 2.2373L8.71917 2.19238C9.44536 2.00195 10.2241 2.31352 10.6127 2.9707H10.6137L10.9731 3.57812V3.5791C11.3913 4.2877 11.2321 5.19166 10.5932 5.71191H10.5922L10.3783 5.88477C10.3795 5.92292 10.3832 5.96128 10.3832 6L10.3783 6.11426L10.5922 6.28809C11.2311 6.80834 11.3913 7.7123 10.9731 8.4209V8.42188L10.6137 9.0293L10.6127 9.02832C10.1984 9.72987 9.33988 10.038 8.57463 9.7627L8.57366 9.76172L8.29729 9.66211C8.22385 9.70677 8.14907 9.74953 8.07268 9.79004L8.02776 10.0488C7.89502 10.8017 7.27345 11.3633 6.52483 11.4307L6.37346 11.4375H5.61956C4.80509 11.4373 4.10714 10.8526 3.96526 10.0498L3.91838 9.78906C3.84219 9.74875 3.76721 9.70665 3.69377 9.66211L3.41936 9.76172L3.41838 9.7627C2.65313 10.0381 1.7947 9.72986 1.3803 9.02832L1.37932 9.0293L1.01995 8.42188V8.4209C0.601659 7.71226 0.760848 6.80835 1.39983 6.28809L1.61272 6.11328C1.61169 6.07569 1.60979 6.03795 1.60979 6L1.61272 5.88574L1.39983 5.71191C0.760842 5.19164 0.60166 4.28773 1.01995 3.5791V3.57812L1.37932 2.9707H1.3803C1.79486 2.26968 2.65339 1.96195 3.41838 2.2373L3.69377 2.33594C3.76718 2.29142 3.84219 2.24929 3.91838 2.20898L3.96526 1.9502C4.10714 1.14744 4.80509 0.562747 5.61956 0.5625H6.37346L6.52483 0.569336ZM5.55706 2.07324C5.49833 2.09496 5.45324 2.1468 5.44182 2.21094V2.21191L5.32854 2.85059L5.25627 3.25684L4.87542 3.41309C4.6482 3.50634 4.43556 3.6277 4.2426 3.77148L3.91936 4.01172L3.54045 3.87598L2.91057 3.64941C2.82037 3.61693 2.71698 3.6547 2.67034 3.7334V3.73438L2.31096 4.3418C2.26882 4.41369 2.28558 4.49767 2.3471 4.54785L2.86272 4.96777L3.18596 5.23145L3.13323 5.64551C3.1181 5.76261 3.10979 5.88112 3.10979 6C3.10979 6.1182 3.11811 6.23622 3.13323 6.35352L3.18596 6.7666L2.8637 7.03027L2.34807 7.45117L2.3471 7.45215C2.28558 7.50233 2.26882 7.58631 2.31096 7.6582L2.67034 8.26562V8.2666C2.7053 8.32559 2.77216 8.36148 2.84124 8.3623L2.91057 8.35059L3.53948 8.12402L3.91936 7.98633L4.2426 8.22754C4.38727 8.33538 4.54271 8.43069 4.70745 8.51074L4.87542 8.58594L5.25627 8.74219L5.32854 9.14844L5.44182 9.78809V9.78906C5.45704 9.87449 5.53202 9.9374 5.61956 9.9375H6.37346C6.46085 9.93734 6.53599 9.87457 6.5512 9.78906L6.6635 9.15039L6.73479 8.74316L7.1176 8.58594C7.34329 8.49332 7.55513 8.37231 7.74944 8.22754L8.07268 7.98633L8.45159 8.12402L9.08147 8.35059H9.08245C9.17267 8.38304 9.27608 8.34534 9.32268 8.2666V8.26562L9.68206 7.6582C9.72409 7.58639 9.7073 7.50232 9.64592 7.45215V7.45117L9.12932 7.03027L8.80608 6.76758L8.85881 6.35352C8.87438 6.23282 8.88323 6.11519 8.88323 6C8.88323 5.88415 8.87438 5.76598 8.85881 5.64551L8.8051 5.23145L9.1303 4.96777L9.64592 4.54785C9.7073 4.49768 9.72409 4.41361 9.68206 4.3418L9.32268 3.73438V3.7334C9.28778 3.67442 9.22082 3.6386 9.15178 3.6377L9.08245 3.64941L8.45159 3.87598L8.07268 4.01172L7.74944 3.77148C7.55499 3.62666 7.34306 3.50558 7.1176 3.41309L6.73479 3.25586L6.6635 2.84863L6.5512 2.21094C6.53978 2.14677 6.49457 2.09497 6.43596 2.07324L6.37346 2.0625H5.61956L5.55706 2.07324ZM6.00042 4.6875C6.72508 4.68774 7.31292 5.27528 7.31292 6C7.31292 6.72472 6.72508 7.31226 6.00042 7.3125C5.27554 7.3125 4.68792 6.72487 4.68792 6C4.68792 5.27513 5.27554 4.6875 6.00042 4.6875Z"
    fill="currentColor"
  />
</svg>

<svg xmlns="http://www.w3.org/2000/svg" width="12" height="12" fill="none" data-fui-icon="true" viewBox="0 0 12 12"><path fill="currentColor" fill-rule="evenodd" d="M6.525.57A1.68 1.68 0 0 1 8.028 1.95l.045.257q.114.06.224.128l.278-.099.144-.045a1.7 1.7 0 0 1 1.894.779l.36.607v.001a1.66 1.66 0 0 1-.38 2.133l-.215.173q.004.057.005.115l-.005.114.214.174c.64.52.8 1.424.381 2.133l-.36.608a1.7 1.7 0 0 1-2.038.734l-.001-.001-.277-.1a4 4 0 0 1-.224.128l-.045.259a1.68 1.68 0 0 1-1.503 1.382l-.152.007H5.62a1.68 1.68 0 0 1-1.655-1.388l-.047-.26a4 4 0 0 1-.224-.128l-.275.1a1.7 1.7 0 0 1-2.039-.734v.001l-.36-.607V8.42a1.66 1.66 0 0 1 .38-2.133l.213-.175Q1.61 6.057 1.61 6l.003-.114-.213-.174a1.66 1.66 0 0 1-.38-2.133l.36-.608a1.7 1.7 0 0 1 2.038-.734l.276.099a4 4 0 0 1 .224-.127l.047-.259A1.68 1.68 0 0 1 5.62.563h.753zm-.968 1.503a.18.18 0 0 0-.115.138l-.113.64-.073.406-.38.156c-.228.093-.44.215-.633.358l-.324.24-.379-.135-.63-.227a.2.2 0 0 0-.24.084v.001l-.359.608a.16.16 0 0 0 .036.206l.516.42.323.263-.053.415a2.8 2.8 0 0 0 0 .708l.053.413-.322.263-.516.421v.001a.16.16 0 0 0-.037.206l.36.608a.2.2 0 0 0 .17.096l.07-.011.628-.227.38-.138.324.242q.217.162.464.283l.168.075.381.156.073.406.113.64v.001a.18.18 0 0 0 .178.149h.753a.18.18 0 0 0 .178-.149l.112-.639.072-.407.383-.157q.339-.14.631-.358l.324-.242.379.138.63.227a.2.2 0 0 0 .24-.084v-.001l.36-.608a.16.16 0 0 0-.036-.206l-.517-.422-.323-.262.053-.414q.023-.182.024-.354 0-.174-.024-.354l-.054-.415.325-.263.516-.42a.16.16 0 0 0 .036-.206l-.36-.608a.2.2 0 0 0-.17-.096l-.07.011-.63.227-.38.136-.323-.24a3 3 0 0 0-.631-.359l-.383-.157-.072-.407-.112-.638a.18.18 0 0 0-.115-.138l-.063-.01H5.62zM6 4.688a1.313 1.313 0 1 1 0 2.625 1.313 1.313 0 0 1 0-2.625" clip-rule="evenodd"/></svg>
